X: 1648
T: Sabâ Tarf-ı Vefâdan...
C: Hâfız Hüsnü Efendi (Enderûnlu)
O: Turkey
F: http://compmusic.upf.edu/node/140
N: mahur--sarki--duyek--saba_tarf-i--enderunlu_hafiz_husnu_efendi
N: makam= mahur
N: form= sarki
N: usul= duyek = 8/4
M: 8/4
L: 1/16
K: C ^9/8f   
Q: 1/4=144
%%MIDI tuningsystem comma53
G2 g4 d2 ed ef g4  | fg a4 g^f fg =fe d4  | \
w:  ARANAĞME  |   | 
d2 g4 a2 b2 g2 a2 f2  | 
w:   | 
g6 =fe dc BA G4  | G2 g4 d2 ed ef g4  | \
w:   |   | 
dc de d2 c2 B3A G4  | 
w:   | 
G2 A4 c2 B2 G2 A2 F2  | G2 g4 =fe dc BA G4  | \
w:   |   | 
G2 g4 d2 ed ef g4  | 
w:  ARANAĞME  | 
fg a4 g^f fg =fe d4  | d2 g4 a2 b2 g2 a2 f2  | \
w:   |   | 
g6 =fe dc BA G4  | 
w:   | 
G2 g4 d2 ed ef g4  | dc de d2 c2 B3A G4  | \
w:   |   | 
G2 A4 c2 B2 G2 A2 F2  | 
w:   | 
G2 g4 =fe dc BA G4  | g2 gf e2 f2 g2 f2 g2 a2  | \
w:   |  Sa bâ  *  *  *  tarf_ *  ı  ve  | 
ag ab a2 g2 ^f3e d4  | 
w:  fâ *  *  *  *  *  dan   | 
d2 g4 a2 b2 g2 a2 f2  | g6 =fe dc BA G4  | \
w:  pe yâm  *  yok   |  mu   SAZ  | 
g2 gf e2 f2 g2 f2 g2 a2  | 
w:  Sa bâ  *  *  *  tarf_ *  ı  ve  | 
ag ab a2 g2 ^f3e d4  | d2 g4 a2 b2 g2 a2 f2  | \
w:  fâ *  *  *  *  *  dan   |  pe yâm  *  yok   | 
g6 ab ag fg a4  | 
w:  mu   SAZ  | 
g2 g4 a2 a6 f2  | gf ga ^f2 e2 d2 {e}dc .B4  | \
w:  O  yâr_ i  bî ve  |  fâ *  *  *  *  *  dan   | 
g2 g4 g^f f3d e2 {=f}ed  | 
w:  se lâm  *  *  yok   | 
d2 e=f ag fe ed d^3/4c d4  | d2 d4 a2 g2 =f2 e2 d2  | \
w:  mu   SAZ  |  O  yâr_ i  bî *  *  ve  | 
dc de d2 c2 B2 {c}BA .G4  | 
w:  fâ *  *  *  *  *  dan   | 
A2 A4 c2 B2 G2 A2 F2  | G6 ed dc Bd c4  | \
w:  se lâm  *  yok   |  mu   SAZ  | 
G2 c4 d2 e3d =f2 ed  | 
w:  Vi sâl_ i  lût *  fu na   | 
dc de d2 c2 B3A .G4  | g2 g4 a2 b2 g2 a2 f2  | \
w:  da *  *  *  *  *  ir   |  ke lâm  *  yok   | 
g6 =fe dc Bd c4  | 
w:  mu   SAZ  | 
G2 c4 d2 e3d =f2 ed  | dc de d2 c2 B3A .G4  | \
w:  Vi sâl_ i  lût *  fu na   |  da *  *  *  *  *  ir   | 
g2 g4 a2 b2 g2 a2 f2  | 
w:  ke lâm  *  yok   | 
g6 ab ag fg a4  | g2 g4 a2 a6 f2  | gf ga ^f2 e2 d2 {e}dc .B4  | 
w:  mu   SAZ  |  O  yâr_ i  bî ve  |  fâ *  *  *  *  *  dan   | 
g2 g4 g^f f3d e2 {=f}ed  | d2 e=f ag fe ed d^3/4c d4  | 
w:  se lâm  *  *  yok   |  mu   SAZ  | 
d2 d4 a2 g2 =f2 e2 d2  | dc de d2 c2 B2 {c}BA .G4  | \
w:  O  yâr_ i  bî *  *  ve  |  fâ *  *  *  *  *  dan   | 
A2 A4 c2 B2 G2 A2 F2  | 
w:  se lâm  *  yok   | 
G6 D2 ED EF G4  | |


